X: 10702
M: 6/8
L: 1/8
K: D
!p!F2F FG^G | A(fd) A(AG) | F(FE) DFD | CEA (c/B/)(A/G/)F/E/ |\
!f!F2F FG^G  | A(fd) AAG | F(FE) D(DE) | DFE D2 H|]
"^>"[E3A,3] FGA | BAB E2[AA,] | "^>"[E3A,3] FGA | BAB A^G=G !f!|\
[A3F3] [^c3E3] | [d3F3] zde | fed agf | e[a^c][ac] [a2c2]z |\
[A3F3] [c3E3] | [d3F3] z!p!de | !f!fed agf | ed^c =BA"^D.C."G |]


